images/svg/cart.svg

<svg width="21" height="16" viewBox="0 0 21 16" fill="none" xmlns="http://www.w3.org/2000/svg">
<path fill-rule="evenodd" clip-rule="evenodd" d="M0 0H3.48334L4.85832 3.64907L8.06667 12.1637H18.3332V12.7251C18.7915 13.0993 19.0664 13.5672 19.0664 14.2222C19.0664 15.1578 18.2414 16 17.3248 16C16.3165 16 15.5832 15.1578 15.5832 14.2222C15.5832 13.9415 15.5832 13.6608 15.7665 13.3801H10.3583C10.45 13.6608 10.5416 13.9415 10.5416 14.2222C10.5416 15.1578 9.71663 16 8.80003 16C7.79171 16 7.05842 15.1578 7.05842 14.2222C7.05842 13.9415 7.15014 13.6608 7.24175 13.3801L3.11698 2.52591L2.65862 1.216H0.000386838L0 0ZM5.68321 3.46204H19.8912C20.4412 3.46204 21.0829 3.92992 20.9912 4.58483L19.2496 11.3219H8.61634L5.68309 3.46204H5.68321ZM14.0245 5.80122V9.45029C14.0245 10.1988 12.9246 10.1988 12.9246 9.45029V5.80122C12.9246 5.05271 14.0245 5.05271 14.0245 5.80122ZM11.6412 5.80122V9.45029C11.6412 10.1988 10.4496 10.1988 10.4496 9.45029V5.80122C10.4496 5.05271 11.6412 5.05271 11.6412 5.80122ZM16.4995 5.80122V9.45029C16.4995 10.1988 15.3078 10.1988 15.3078 9.45029V5.80122C15.3078 5.05271 16.4995 5.05271 16.4995 5.80122ZM8.79959 13.474C9.16625 13.474 9.53288 13.7548 9.53288 14.2225C9.53288 14.5968 9.16622 14.9711 8.79959 14.9711C8.43294 14.9711 8.06631 14.5968 8.06631 14.2225C8.06631 13.7547 8.43297 13.474 8.79959 13.474ZM17.3244 13.474C17.6911 13.474 18.0577 13.7548 18.0577 14.2225C18.0577 14.5968 17.691 14.9711 17.3244 14.9711C16.8661 14.9711 16.5911 14.5968 16.5911 14.2225C16.5911 13.7547 16.8662 13.474 17.3244 13.474Z" fill="#FCFCFC"/>
</svg>

<svg xmlns="http://www.w3.org/2000/svg" width="21" height="16" fill="none"><path fill="#FCFCFC" fill-rule="evenodd" d="M0 0h3.483l1.375 3.65 3.209 8.514h10.266v.561c.459.374.733.842.733 1.497 0 .936-.825 1.778-1.741 1.778-1.008 0-1.742-.842-1.742-1.778 0-.28 0-.561.184-.842h-5.409c.092.28.184.561.184.842 0 .936-.825 1.778-1.742 1.778-1.008 0-1.742-.842-1.742-1.778 0-.28.092-.561.184-.842L3.117 2.526l-.458-1.31H0V0Zm5.683 3.462h14.208c.55 0 1.192.468 1.1 1.123l-1.741 6.737H8.616l-2.933-7.86Zm8.341 2.34V9.45c0 .749-1.1.749-1.1 0V5.801c0-.748 1.1-.748 1.1 0Zm-2.383 0V9.45c0 .749-1.191.749-1.191 0V5.801c0-.748 1.191-.748 1.191 0Zm4.859 0V9.45c0 .749-1.192.749-1.192 0V5.801c0-.748 1.192-.748 1.192 0Zm-7.7 7.672a.73.73 0 0 1 .733.748c0 .375-.367.75-.733.75-.367 0-.734-.375-.734-.75a.73.73 0 0 1 .734-.748Zm8.524 0a.73.73 0 0 1 .734.748c0 .375-.367.75-.734.75-.458 0-.733-.375-.733-.75 0-.467.275-.748.733-.748Z" clip-rule="evenodd"/></svg>
